assets/Tamale/Flat/tamale_flat.svg

<svg width="32" height="32" viewBox="0 0 32 32" fill="none" xmlns="http://www.w3.org/2000/svg">
<path d="M27.9024 21.2425L21.2524 27.8925C20.1524 28.9925 18.3724 28.9925 17.2724 27.8925L3.4624 14.0825L14.0924 3.45251L27.9024 17.2725C29.0024 18.3625 29.0024 20.1525 27.9024 21.2425Z" fill="#F9C23C"/>
<path d="M30.0025 19.6125C30.0025 18.6025 29.6025 17.6325 28.8825 16.9225L22.4225 10.4925C22.1425 10.2125 21.7225 10.1325 21.3625 10.2925L15.4725 12.8725C14.2925 13.3925 13.3625 14.3225 12.8425 15.5025L10.2625 21.3925C10.1025 21.7525 10.1825 22.1725 10.4625 22.4525L16.8025 28.8625C17.5125 29.5825 18.4925 29.9925 19.5025 29.9925H19.6325C20.8525 29.9925 21.8725 29.7925 22.5225 29.1725L29.1625 22.5325C29.9725 21.7225 30.0025 20.6425 30.0025 19.6125Z" fill="#FCD53F"/>
<path d="M15.1725 8.8125L21.1555 14.7955L20.4455 15.5055L14.4625 9.5225L15.1725 8.8125Z" fill="#F3AD61"/>
<path d="M18.4 17.6801L12.3525 11.6325L11.6425 12.3425L17.69 18.3901L18.4 17.6801Z" fill="#F3AD61"/>
<path d="M15.6032 20.5632L9.5125 14.4725L8.8125 15.1825L14.8932 21.2632L15.6032 20.5632Z" fill="#F3AD61"/>
<path d="M13.5906 14.2906C13.8048 14.0323 14.0438 13.7959 14.3046 13.5846L26.2075 25.4875L25.4975 26.1975L13.5906 14.2906Z" fill="#F9C23C"/>
<path d="M11.7124 18.0824L12.1419 17.1019L23.3675 28.3275L22.6625 29.0325L11.7124 18.0824Z" fill="#F9C23C"/>
<path d="M28.3175 23.3775L17.0997 12.1597L18.0872 11.7272L29.0275 22.6675L28.3175 23.3775Z" fill="#F9C23C"/>
<path d="M20.4025 17.0025L24.7225 12.6825C25.1125 12.2925 25.1125 11.6625 24.7225 11.2725C24.3325 10.8825 23.7025 10.8825 23.3125 11.2725L11.2825 23.3025C10.8925 23.6925 10.8925 24.3225 11.2825 24.7125C11.6725 25.1025 12.3025 25.1025 12.6925 24.7125L17.0024 20.4025V23.0125C17.0024 23.5625 17.4524 24.0125 18.0024 24.0125C18.5524 24.0125 19.0024 23.5625 19.0024 23.0125V19.0025H23.0124C23.5624 19.0025 24.0124 18.5525 24.0124 18.0025C24.0124 17.4425 23.5624 17.0025 23.0124 17.0025H20.4025Z" fill="#FFDEA7"/>
<path d="M10.5325 14.0825C8.5825 16.0325 5.4125 16.0325 3.4625 14.0825C1.5125 12.1325 1.5125 8.9625 3.4625 7.0125L7.0125 3.4625C8.9625 1.5125 12.1325 1.5125 14.0825 3.4625C16.0325 5.4125 16.0325 8.5825 14.0825 10.5325L10.5325 14.0825Z" fill="#FFDEA7"/>
<path d="M4.17244 13.3725C2.61244 11.8125 2.61244 9.28249 4.17244 7.71249L7.72244 4.16249C9.28244 2.60249 11.8124 2.60249 13.3824 4.16249C10.8123 6.78156 7.50494 10.0889 4.17244 13.3725Z" fill="#FFB02E"/>
<path d="M11.2224 3.04252C10.6324 2.94252 10.0224 3.12252 9.59242 3.54252L9.58242 3.55252C8.98242 4.15252 8.79242 5.00252 9.00242 5.76252C9.04242 5.89252 8.91242 6.02252 8.77242 5.98252C8.01242 5.77252 7.16242 5.96252 6.57242 6.56252C5.97242 7.16252 5.78242 8.00252 5.99242 8.76252C6.03242 8.90252 5.90242 9.03252 5.77242 8.99252C5.01242 8.78252 4.16242 8.97252 3.57242 9.57252L3.56242 9.58252C3.14242 10.0125 2.96242 10.6225 3.06242 11.2125C3.19242 12.0025 3.56242 12.7625 4.18242 13.3725C4.40887 13.599 4.65601 13.7926 4.91784 13.9533C5.34766 13.7344 5.3821 13.6327 5.67578 13.4219C9.12414 10.9467 13.6094 5.99219 13.6094 5.99219C13.6094 5.99219 13.793 5.26953 13.9702 4.91151C13.8187 4.64129 13.6357 4.38741 13.4024 4.15252C12.7724 3.55252 12.0124 3.18252 11.2224 3.04252Z" fill="#6D4534"/>
<path d="M4.8726 13.9325C6.4226 14.9025 8.4826 14.7225 9.8326 13.3725L13.3826 9.82253C14.7326 8.47253 14.9126 6.41253 13.9426 4.86253C13.0826 4.41253 12.0026 4.54253 11.2926 5.26253C10.6926 5.86253 10.5026 6.70253 10.7126 7.46253C10.7526 7.60253 10.6226 7.73253 10.4826 7.69253C9.7226 7.48253 8.8726 7.67253 8.2826 8.27253C7.6826 8.87253 7.4926 9.71253 7.7026 10.4725C7.7426 10.6125 7.6126 10.7325 7.4726 10.7025C6.7226 10.4925 5.8726 10.6825 5.2726 11.2825C4.5526 11.9925 4.4226 13.0725 4.8726 13.9325Z" fill="#A56953"/>
</svg>

<svg xmlns="http://www.w3.org/2000/svg" width="32" height="32" fill="none"><path fill="#F9C23C" d="m27.902 21.242-6.65 6.65c-1.1 1.1-2.88 1.1-3.98 0l-13.81-13.81 10.63-10.63 13.81 13.82a2.8 2.8 0 0 1 0 3.97Z"/><path fill="#FCD53F" d="M30.003 19.613c0-1.01-.4-1.98-1.12-2.69l-6.46-6.43a.951.951 0 0 0-1.06-.2l-5.89 2.58a5.115 5.115 0 0 0-2.63 2.63l-2.58 5.89c-.16.36-.08.78.2 1.06l6.34 6.41c.71.72 1.69 1.13 2.7 1.13h.13c1.22 0 2.24-.2 2.89-.82l6.64-6.64c.81-.81.84-1.89.84-2.92Z"/><path fill="#F3AD61" d="m15.172 8.813 5.983 5.982-.71.71-5.982-5.982.71-.71ZM18.4 17.68l-6.047-6.047-.71.71 6.047 6.047.71-.71ZM15.603 20.563l-6.09-6.09-.7.71 6.08 6.08.71-.7Z"/><path fill="#F9C23C" d="M13.59 14.29a5.09 5.09 0 0 1 .715-.705l11.902 11.902-.71.71-11.906-11.906ZM11.712 18.082l.43-.98 11.226 11.226-.705.704-10.95-10.95ZM28.317 23.378 17.1 12.16l.987-.433 10.94 10.94-.71.71Z"/><path fill="#FFDEA7" d="m20.402 17.003 4.32-4.32a.996.996 0 1 0-1.41-1.41l-12.03 12.03a.996.996 0 1 0 1.41 1.41l4.31-4.31v2.61c0 .55.45 1 1 1s1-.45 1-1v-4.01h4.01c.55 0 1-.45 1-1 0-.56-.45-1-1-1h-2.61ZM10.533 14.082a5.003 5.003 0 0 1-7.07 0 5.003 5.003 0 0 1 0-7.07l3.55-3.55a5.003 5.003 0 0 1 7.07 0 5.003 5.003 0 0 1 0 7.07l-3.55 3.55Z"/><path fill="#FFB02E" d="M4.172 13.373a4.008 4.008 0 0 1 0-5.66l3.55-3.55a4.008 4.008 0 0 1 5.66 0 814.354 814.354 0 0 1-9.21 9.21Z"/><path fill="#6D4534" d="M11.222 3.043c-.59-.1-1.2.08-1.63.5l-.01.01c-.6.6-.79 1.45-.58 2.21.04.13-.09.26-.23.22-.76-.21-1.61-.02-2.2.58-.6.6-.79 1.44-.58 2.2.04.14-.09.27-.22.23-.76-.21-1.61-.02-2.2.58l-.01.01c-.42.43-.6 1.04-.5 1.63.13.79.5 1.55 1.12 2.16.227.226.474.42.736.58.43-.219.464-.32.758-.531 3.448-2.475 7.933-7.43 7.933-7.43s.184-.722.361-1.08a3.471 3.471 0 0 0-.568-.76c-.63-.6-1.39-.97-2.18-1.11Z"/><path fill="#A56953" d="M4.873 13.932c1.55.97 3.61.79 4.96-.56l3.55-3.55a4.004 4.004 0 0 0 .56-4.96c-.86-.45-1.94-.32-2.65.4-.6.6-.79 1.44-.58 2.2.04.14-.09.27-.23.23-.76-.21-1.61-.02-2.2.58-.6.6-.79 1.44-.58 2.2.04.14-.09.26-.23.23-.75-.21-1.6-.02-2.2.58-.72.71-.85 1.79-.4 2.65Z"/></svg>
